images/trainings-block-price.svg

<svg fill="none" height="14" viewBox="0 0 14 14" width="14" xmlns="http://www.w3.org/2000/svg"><path clip-rule="evenodd" d="m7 13.125c3.3827 0 6.125-2.7423 6.125-6.125 0-3.38274-2.7423-6.125-6.125-6.125-3.38274 0-6.125 2.74226-6.125 6.125 0 3.3827 2.74226 6.125 6.125 6.125zm-1.5885-3.65552v.89762h1.18433v-.89762h1.83288v-.54986h-1.83288v-.87415h1.20312c.44177 0 .82872-.08929 1.16083-.26788s.59059-.42454.77545-.73786c.18486-.31331.27727-.67205.27727-1.07623v-.0094c0-.40417-.09085-.76292-.27257-1.07623-.17859-.31645-.43081-.56397-.75665-.74256-.32272-.17858-.70183-.26788-1.13733-.26788h-2.43445v3.62818h-.91174v.54986h.91174v.87415h-.91174v.54986zm2.09137-2.36865h-.90704v-2.26056h.91174c.43237 0 .75665.10026.97284.30078.21932.20052.32898.47467.32898.82245v.0094c0 .35091-.10966.62663-.32898.82715-.21619.20052-.54203.30078-.97754.30078z" fill="#08274d" fill-opacity=".3" fill-rule="evenodd"/></svg>

<svg width="14" height="14" viewBox="0 0 14 14" fill="none" xmlns="http://www.w3.org/2000/svg">
<g id="price">
<path id="Subtract" fill-rule="evenodd" clip-rule="evenodd" d="M7 13.125C10.3827 13.125 13.125 10.3827 13.125 7C13.125 3.61726 10.3827 0.875 7 0.875C3.61726 0.875 0.875 3.61726 0.875 7C0.875 10.3827 3.61726 13.125 7 13.125ZM5.4115 9.46948L5.4115 10.3671L6.59583 10.3671L6.59583 9.46948L8.42871 9.46948L8.42871 8.91962L6.59583 8.91962L6.59583 8.04547L7.79895 8.04547C8.24072 8.04547 8.62767 7.95618 8.95978 7.77759C9.29189 7.599 9.55037 7.35305 9.73523 7.03973C9.92009 6.72642 10.0125 6.36768 10.0125 5.9635L10.0125 5.9541C10.0125 5.54993 9.92165 5.19118 9.73993 4.87787C9.56134 4.56142 9.30912 4.3139 8.98328 4.13531C8.66056 3.95673 8.28145 3.86743 7.84595 3.86743L5.4115 3.86743L5.4115 7.49561L4.49976 7.49561L4.49976 8.04547L5.4115 8.04547L5.4115 8.91962L4.49976 8.91962L4.49976 9.46948L5.4115 9.46948ZM7.50287 7.10083L6.59583 7.10083L6.59583 4.84027L7.50757 4.84027C7.93994 4.84027 8.26422 4.94053 8.48041 5.14105C8.69973 5.34157 8.80939 5.61572 8.80939 5.9635L8.80939 5.9729C8.80939 6.32381 8.69973 6.59953 8.48041 6.80005C8.26422 7.00057 7.93838 7.10083 7.50287 7.10083Z" fill="#08274D" fill-opacity="0.3"/>
</g>
</svg>
